public/images/fly_features/ios11-icon.svg

<?xml version="1.0" encoding="UTF-8" standalone="no"?>
<svg width="103px" height="103px" viewBox="0 0 103 103" version="1.1" xmlns="http://www.w3.org/2000/svg" xmlns:xlink="http://www.w3.org/1999/xlink">
    <!-- Generator: Sketch 42 (36781) - http://www.bohemiancoding.com/sketch -->
    <title>IOS11</title>
    <desc>Created with Sketch.</desc>
    <defs>
        <linearGradient x1="50%" y1="0%" x2="50%" y2="74.9697731%" id="linearGradient-1">
            <stop stop-color="#6B7DBD" offset="0%"></stop>
            <stop stop-color="#BB254D" offset="100%"></stop>
        </linearGradient>
    </defs>
    <g id="Page-1" stroke="none" stroke-width="1" fill="none" fill-rule="evenodd">
        <g id="IOS11">
            <g id="Group">
                <rect id="Rectangle-14" fill="#FFFFFF" x="0" y="0" width="103" height="103" rx="24"></rect>
                <path d="M38.732,23 L35.876,23 C32.432,28.88 26.72,32.828 20,33.836 L20,36.608 C25.796,36.02 31.424,33.584 35.54,29.216 L35.54,80.96 L38.732,80.96 L38.732,23 Z M77.5359999,23 L74.6799999,23 C71.2359999,28.88 65.5239999,32.828 58.8039999,33.836 L58.8039999,36.608 C64.5999999,36.02 70.2279999,33.584 74.3439999,29.216 L74.3439999,80.96 L77.5359999,80.96 L77.5359999,23 Z" id="11" fill="url(#linearGradient-1)"></path>
            </g>
        </g>
    </g>
</svg>

<svg width="103" height="103" viewBox="0 0 103 103" xmlns="http://www.w3.org/2000/svg"><title>IOS11</title><defs><linearGradient x1="50%" y1="0%" x2="50%" y2="74.97%" id="a"><stop stop-color="#6B7DBD" offset="0%"/><stop stop-color="#BB254D" offset="100%"/></linearGradient></defs><g fill="none" fill-rule="evenodd"><rect fill="#FFF" width="103" height="103" rx="24"/><path d="M38.732 23h-2.856C32.432 28.88 26.72 32.828 20 33.836v2.772c5.796-.588 11.424-3.024 15.54-7.392V80.96h3.192V23zm38.804 0H74.68c-3.444 5.88-9.156 9.828-15.876 10.836v2.772c5.796-.588 11.424-3.024 15.54-7.392V80.96h3.192V23z" fill="url(#a)"/></g></svg>
